img/landing/innovation.svg

<svg width="61" height="81" viewBox="0 0 61 81" fill="none" xmlns="http://www.w3.org/2000/svg">
<path d="M26.9874 4.4671L20.4895 0.712402L13.9958 4.4671L7.49788 8.21764L1 11.9682L7.49788 15.7187L13.9958 19.4693L20.4895 15.7187L26.9874 11.9682L33.4852 8.21764L26.9874 4.4671Z" stroke="#A8F3E1" stroke-width="1.21626" stroke-miterlimit="10" stroke-linejoin="round"/>
<path d="M26.9877 11.9673L20.4898 15.7179L13.9961 19.4684V26.9695V34.4706V41.9717V49.4769L20.4898 45.7264L26.9877 41.9717V34.4706V26.9695L33.4856 23.219V15.7179V8.2168L26.9877 11.9673Z" stroke="#A8F3E1" stroke-width="1.21626" stroke-miterlimit="10" stroke-linejoin="round"/>
<path d="M52.9751 49.4779L46.4772 45.7274L39.9793 49.4779L33.4856 45.7274L26.9877 41.9727L20.4898 45.7274L13.9961 49.4779L20.4898 53.2284L26.9877 56.979L33.4856 60.7295L39.9793 64.4801L46.4772 60.7295L52.9751 56.979L59.4729 53.2284L52.9751 49.4779Z" stroke="#A8F3E1" stroke-width="1.21626" stroke-miterlimit="10" stroke-linejoin="round"/>
<path d="M33.4852 60.7294L26.9874 56.9789L20.4895 53.2284L13.9958 49.4778V41.9726V34.4715V26.9704V19.4693L7.49788 15.7188L1 11.9683V19.4693V26.9704V34.4715V41.9726V49.4778V56.9789L7.49788 60.7294L13.9958 64.48L20.4895 68.2305L26.9874 71.9811L33.4852 75.7316L39.979 79.4821V71.9811V64.48L33.4852 60.7294Z" stroke="#A8F3E1" stroke-width="1.21626" stroke-miterlimit="10" stroke-linejoin="round"/>
<path d="M52.9756 19.4693L46.4778 15.7188L39.9799 19.4693L33.4862 23.2198L26.9883 26.9704L33.4862 30.7209L39.9799 34.4715L46.4778 30.7209L52.9756 26.9704L59.4735 23.2198L52.9756 19.4693Z" stroke="#A8F3E1" stroke-width="1.21626" stroke-miterlimit="10" stroke-linejoin="round"/>
<path d="M33.4862 30.7212L26.9883 26.9707V34.4718V41.9729L33.4862 45.7276L39.9799 49.4781V41.9729V34.4718L33.4862 30.7212Z" stroke="#A8F3E1" stroke-width="1.21626" stroke-miterlimit="10" stroke-linejoin="round"/>
<path d="M52.9752 26.9712L46.4774 30.7218L39.9795 34.4723V41.9734V49.4786L46.4774 45.7281L52.9752 41.9734L59.4731 38.2229V30.7218V23.2207L52.9752 26.9712Z" stroke="#A8F3E1" stroke-width="1.21626" stroke-miterlimit="10" stroke-linejoin="round"/>
<path d="M52.9752 56.979L46.4774 60.7296L39.9795 64.4801V71.9812V79.4823L46.4774 75.7318L52.9752 71.9812L59.4731 68.2307V60.7296V53.2285L52.9752 56.979Z" stroke="#A8F3E1" stroke-width="1.21626" stroke-miterlimit="10" stroke-linejoin="round"/>
</svg>

<svg width="61" height="81" fill="none" xmlns="http://www.w3.org/2000/svg"><path d="M26.987 4.467 20.49.712l-6.494 3.755-6.498 3.75L1 11.969l6.498 3.75 6.498 3.751 6.493-3.75 6.498-3.75 6.498-3.751-6.498-3.75Z" stroke="#A8F3E1" stroke-width="1.216" stroke-miterlimit="10" stroke-linejoin="round"/><path d="m26.988 11.967-6.498 3.75-6.494 3.751V49.477l6.494-3.75 6.498-3.755V26.97l6.498-3.751V8.217l-6.498 3.75Z" stroke="#A8F3E1" stroke-width="1.216" stroke-miterlimit="10" stroke-linejoin="round"/><path d="m52.975 49.478-6.498-3.75-6.498 3.75-6.493-3.75-6.498-3.755-6.498 3.754-6.494 3.75 6.494 3.751 6.498 3.751 6.498 3.75 6.493 3.751 6.498-3.75 6.498-3.751 6.498-3.75-6.498-3.751Z" stroke="#A8F3E1" stroke-width="1.216" stroke-miterlimit="10" stroke-linejoin="round"/><path d="m33.485 60.73-6.498-3.751-6.497-3.75-6.494-3.751V19.469l-6.498-3.75L1 11.969v45.009l6.498 3.751 6.498 3.751 6.493 3.75 6.498 3.751 6.498 3.75 6.494 3.751V64.48l-6.494-3.75ZM52.976 19.47l-6.498-3.751-6.498 3.75-6.494 3.75-6.498 3.751 6.498 3.75 6.494 3.752 6.498-3.751 6.498-3.75 6.498-3.751-6.498-3.75Z" stroke="#A8F3E1" stroke-width="1.216" stroke-miterlimit="10" stroke-linejoin="round"/><path d="m33.486 30.721-6.498-3.75V41.973l6.498 3.755 6.494 3.75V34.472l-6.494-3.75ZM52.975 26.971l-6.498 3.75-6.497 3.751V49.48l6.497-3.75 6.498-3.756 6.498-3.75V23.22l-6.498 3.75ZM52.975 56.979l-6.498 3.75-6.497 3.751v15.002l6.497-3.75 6.498-3.75 6.498-3.751V53.228l-6.498 3.751Z" stroke="#A8F3E1" stroke-width="1.216" stroke-miterlimit="10" stroke-linejoin="round"/></svg>
